world_stage/static/flags/rect/bwa.svg

<svg height="1066.6667" viewBox="0 0 1600 1066.6667" width="1600" xmlns="http://www.w3.org/2000/svg"><g transform="matrix(1.3333333 0 0 -1.3333333 0 1066.6667)"><path d="m0 0h1200v800h-1200z" fill="#75aadb"/><path d="m0 300h1200v200.001h-1200z" fill="#fff"/><path d="m0 333.333h1200v133.333h-1200z"/></g></svg>

<?xml version="1.0" encoding="UTF-8" standalone="no"?>
<!-- Created with Inkscape (http://www.inkscape.org/) -->

<svg
   version="1.1"
   id="svg1"
   width="1600"
   height="1066.6667"
   viewBox="0 0 1600 1066.6667"
   sodipodi:docname="bw.ai"
   xmlns:inkscape="http://www.inkscape.org/namespaces/inkscape"
   xmlns:sodipodi="http://sodipodi.sourceforge.net/DTD/sodipodi-0.dtd"
   xmlns="http://www.w3.org/2000/svg"
   xmlns:svg="http://www.w3.org/2000/svg">
  <defs
     id="defs1" />
  <sodipodi:namedview
     id="namedview1"
     pagecolor="#ffffff"
     bordercolor="#000000"
     borderopacity="0.25"
     inkscape:showpageshadow="2"
     inkscape:pageopacity="0.0"
     inkscape:pagecheckerboard="0"
     inkscape:deskcolor="#d1d1d1">
    <inkscape:page
       x="0"
       y="0"
       inkscape:label="1"
       id="page1"
       width="1600"
       height="1066.6667"
       margin="4.069e-05 0 0"
       bleed="0" />
  </sodipodi:namedview>
  <g
     id="layer-MC0"
     inkscape:groupmode="layer"
     inkscape:label="Layer 1">
    <path
       id="path1"
       d="M 0,0 H 1200 V 800 H 0 Z"
       style="fill:#75aadb;fill-opacity:1;fill-rule:nonzero;stroke:none"
       transform="matrix(1.3333333,0,0,-1.3333333,0,1066.6667)" />
    <path
       id="path2"
       d="M 0,300 H 1200 V 500.001 H 0 Z"
       style="fill:#ffffff;fill-opacity:1;fill-rule:nonzero;stroke:none"
       transform="matrix(1.3333333,0,0,-1.3333333,0,1066.6667)" />
    <path
       id="path3"
       d="M 0,333.333 H 1200 V 466.666 H 0 Z"
       style="fill:#000000;fill-opacity:1;fill-rule:nonzero;stroke:none"
       transform="matrix(1.3333333,0,0,-1.3333333,0,1066.6667)" />
  </g>
</svg>
